priv/static/svgs/icons_new/sport-kabaddi.svg

<svg width="32" height="32" viewBox="0 0 32 32" fill="none" xmlns="http://www.w3.org/2000/svg">
<path d="M3.09257 10.439C3.09257 10.439 11.5293 10.8663 11.94 10.8663C13.618 10.8663 15.8885 11.2059 16 12.7805M16 12.7805V18.6341M16 12.7805C16.1115 11.2059 18.382 10.8663 20.06 10.8663C20.4707 10.8663 28.9074 10.439 28.9074 10.439M16 18.6341C16 19.8049 13.8996 19.9746 13.0606 19.4068C12.2216 18.839 10.3383 17.6976 10.0626 17.4166C9.8807 16.9015 9.82203 16.0059 9.71056 15.1395C10.5202 15.5785 11.7288 15.3912 12.2275 15.3912C12.3801 15.6429 12.7321 15.918 12.9022 16.0937M16 18.6341C16 19.8049 18.1004 19.9746 18.9394 19.4068C19.7784 18.839 21.6617 17.6976 21.9374 17.4166C22.1193 16.9015 22.178 16.0059 22.2894 15.1395C21.4798 15.5785 20.2712 15.3912 19.7725 15.3912C19.6199 15.6429 19.2679 15.918 19.0978 16.0937M12.9081 14.56L12.2216 15.3854M13.2953 19.5473C13.618 20.2615 13.2425 22.8371 11.101 21.9707C9.70469 21.4029 9.42308 21.1161 7.46936 20.5483C6.09648 20.1502 5.75033 19.6176 4.91134 18.7688C4.07236 17.9141 3.49739 16.8839 2.5 16.8839M19.0919 14.56L19.7784 15.3854M18.7047 19.5473C18.382 20.2615 18.7575 22.8371 20.899 21.9707C22.2953 21.4029 22.5769 21.1161 24.5306 20.5483C25.9035 20.1502 26.2497 19.6176 27.0887 18.7688C27.9276 17.9141 28.5026 16.8839 29.5 16.8839M11.3064 5.17073L13.0665 7.51219M20.6936 5.17073L18.9335 7.51219M16 7.51219V4M11.3064 26.8293L13.0665 24.4878M20.6936 26.8293L18.9335 24.4878M16 24.4878V28" stroke="black" stroke-miterlimit="10" stroke-linejoin="round"/>
</svg>

<svg width="32" height="32" viewBox="0 0 32 32" fill="none" xmlns="http://www.w3.org/2000/svg">
  <symbol id="item" viewBox="0 0 32 32" stroke-width="1" fill="none">
    <path d="M3.093 10.439s8.436.427 8.847.427c1.678 0 3.949.34 4.06 1.915m0 0v5.853m0-5.854c.111-1.574 2.382-1.914 4.06-1.914.41 0 8.847-.427 8.847-.427M16 18.634c0 1.17-2.1 1.34-2.94.773-.838-.568-2.722-1.71-2.997-1.99-.182-.516-.241-1.411-.352-2.278.81.44 2.018.252 2.516.252.153.252.505.527.675.703M16 18.634c0 1.17 2.1 1.34 2.94.773.838-.568 2.722-1.71 2.997-1.99.182-.516.241-1.411.352-2.278-.81.44-2.018.252-2.517.252-.152.252-.504.527-.674.703m-6.19-1.534-.686.825m1.073 4.162c.323.715-.053 3.29-2.194 2.424-1.396-.568-1.678-.855-3.632-1.423-1.373-.398-1.719-.93-2.558-1.78-.839-.854-1.414-1.884-2.411-1.884m16.592-2.324.686.825m-1.073 4.162c-.323.715.053 3.29 2.194 2.424 1.396-.568 1.678-.855 3.632-1.423 1.373-.398 1.719-.93 2.558-1.78.839-.854 1.414-1.884 2.411-1.884M11.306 5.17l1.76 2.341m7.628-2.341-1.76 2.341m-2.934 0V4m-4.694 22.83 1.76-2.342m7.628 2.341-1.76-2.341m-2.934 0V28" stroke="currentColor" stroke-miterlimit="10" stroke-linejoin="round"/>
  </symbol>
</svg>
